X:2756
T:Polska
B:Folkmusik i Västergötland, musikbilaga, Landtmansson, Samuel, 1911, s.6
O:Ullervad, Västergötland
R:Polska
S:Adolf Olsson "Blinde Adel"
Z:Per Oldberg 2012-08-11
L:1/8
M:3/4
K:D
A>G F>A d>f | e>d c>d e>g | f>g e>f d>e |1 e>d d>c A2 :|2 ((3ece) d4 |:
b z a z g z | f>g e>f d>e | e>c A>c d>f | g>b a(f/a/) f(g/a/) |  
b z a z g z | f>g e>f d>e | e>c A>c d>f | ((3ece) d4 :|
(:musicend:)
(:music:)
